X: 601
T: Louis' Waltz
R: Waltz
M: 3/4
L: 1/8
K: Dmaj
|:BAG|"D"F2 DF Ad|"Dmaj7"f4ef|"G"gb bg fg|"Em"B2-BdcB|"A"A2 EF GA|c2B2c2|
"D"F3DFB|"A"A3BAG|"D"F2 DF Ad|"Dmaj7"f4ef|"G"gg bg fg|"Em"B2-BdcB|
"A"A2 EFGA|c2B2c2|"D"d6|d3:||:z3|"Em"A3AA2|"A"c2B2A2|"D"F3DFA|
"Bm"d2c2d2|"Em"e4 ef|"A"e2A2G2|"D"F4FG|"Bm"F2E2F2|"Em"G4GG|
"A"c2B2A2|"D"d3 DFA|"Bm"d2c2d2|"Em"E3 FEF|"A"G2F2E2|"D"D6|D3:|]

